sprites/streets-v8/_svg/metro-11.svg

<?xml version="1.0" encoding="utf-8"?>
<!-- Generator: Adobe Illustrator 17.0.0, SVG Export Plug-In . SVG Version: 6.00 Build 0)  -->
<!DOCTYPE svg PUBLIC "-//W3C//DTD SVG 1.1//EN" "http://www.w3.org/Graphics/SVG/1.1/DTD/svg11.dtd">
<svg version="1.1"
	 id="Layer_1" xmlns:dc="http://purl.org/dc/elements/1.1/" xmlns:cc="http://creativecommons.org/ns#" xmlns:rdf="http://www.w3.org/1999/02/22-rdf-syntax-ns#" xmlns:svg="http://www.w3.org/2000/svg" xmlns:sodipodi="http://sodipodi.sourceforge.net/DTD/sodipodi-0.dtd" xmlns:inkscape="http://www.inkscape.org/namespaces/inkscape" sodipodi:version="0.32" inkscape:output_extension="org.inkscape.output.svg.inkscape" sodipodi:docname="metro-11.svg" inkscape:version="0.91+devel+osxmenu r12911"
	 xmlns="http://www.w3.org/2000/svg" xmlns:xlink="http://www.w3.org/1999/xlink" x="0px" y="0px" width="13px" height="13px"
	 viewBox="-1 -1 13 13" enable-background="new -1 -1 13 13" xml:space="preserve">
<defs>
	
	
		<inkscape:perspective  id="perspective10" inkscape:persp3d-origin="200 : 133.33333 : 1" inkscape:vp_y="0 : 1000 : 0" sodipodi:type="inkscape:persp3d" inkscape:vp_z="400 : 200 : 1" inkscape:vp_x="0 : 200 : 1">
		</inkscape:perspective>
</defs>
<sodipodi:namedview  inkscape:snap-intersection-paths="true" id="base" inkscape:zoom="32" inkscape:cx="4.920597" showgrid="false" gridtolerance="10.0" inkscape:cy="7.3442461" objecttolerance="10.0" guidetolerance="10.0" bordercolor="#666666" borderopacity="1.0" pagecolor="#ffffff" inkscape:bbox-paths="true" inkscape:snap-bbox="true" inkscape:current-layer="Layer_1" inkscape:pageopacity="0.0" inkscape:window-y="0" inkscape:window-x="2" inkscape:object-paths="true" inkscape:bbox-nodes="true" inkscape:snap-smooth-nodes="true" inkscape:pageshadow="2" inkscape:window-maximized="0" inkscape:object-nodes="true" inkscape:snap-bbox-edge-midpoints="true">
	
		<inkscape:grid  color="#ff0000" type="xygrid" opacity="0.1254902" id="grid3142" visible="true" empspacing="2" spacingy="0.5" enabled="true" spacingx="0.5" snapvisiblegridlinesonly="true">
		</inkscape:grid>
</sodipodi:namedview>
<g id="g3807_1_" transform="translate(-0.5,-0.5)">
</g>
<defs>
	
	
		<inkscape:perspective  id="perspective10" inkscape:persp3d-origin="200 : 133.33333 : 1" inkscape:vp_y="0 : 1000 : 0" sodipodi:type="inkscape:persp3d" inkscape:vp_z="400 : 200 : 1" inkscape:vp_x="0 : 200 : 1">
		</inkscape:perspective>
</defs>
<sodipodi:namedview  inkscape:snap-intersection-paths="true" id="base" inkscape:zoom="32" inkscape:cx="4.920597" showgrid="false" gridtolerance="10.0" inkscape:cy="7.3442461" objecttolerance="10.0" guidetolerance="10.0" bordercolor="#666666" borderopacity="1.0" pagecolor="#ffffff" inkscape:bbox-paths="true" inkscape:snap-bbox="true" inkscape:current-layer="Layer_1" inkscape:pageopacity="0.0" inkscape:window-y="0" inkscape:window-x="2" inkscape:object-paths="true" inkscape:bbox-nodes="true" inkscape:snap-smooth-nodes="true" inkscape:pageshadow="2" inkscape:window-maximized="0" inkscape:object-nodes="true" inkscape:snap-bbox-edge-midpoints="true">
	
		<inkscape:grid  color="#ff0000" type="xygrid" opacity="0.1254902" id="grid3142" visible="true" empspacing="2" spacingy="0.5" enabled="true" spacingx="0.5" snapvisiblegridlinesonly="true">
		</inkscape:grid>
</sodipodi:namedview>
<g id="g3807" transform="translate(-0.5,-0.5)">
</g>
<g>
	<path fill="#FFFFFF" d="M5.5-1C1.916-1-1,1.916-1,5.5S1.916,12,5.5,12S12,9.084,12,5.5S9.084-1,5.5-1z M5.5,11
		C2.467,11,0,8.532,0,5.5C0,2.467,2.467,0,5.5,0C8.532,0,11,2.467,11,5.5C11,8.532,8.532,11,5.5,11z"/>
	<path fill="#FFFFFF" d="M5.5,1C3.019,1,1,3.019,1,5.5S3.019,10,5.5,10S10,7.981,10,5.5S7.981,1,5.5,1z M8.001,7.493
		c0,0.276-0.224,0.5-0.5,0.5s-0.5-0.224-0.5-0.5V4.925L5.89,6.312C5.795,6.431,5.652,6.5,5.5,6.5S5.205,6.431,5.109,6.312L4,4.925
		v2.568c0,0.276-0.224,0.5-0.5,0.5S3,7.77,3,7.493V3.5c0-0.212,0.134-0.401,0.334-0.472c0.2-0.071,0.422-0.007,0.556,0.159L5.5,5.2
		l1.61-2.012c0.134-0.165,0.356-0.229,0.557-0.159c0.2,0.07,0.334,0.259,0.334,0.472V7.493z"/>
	<path fill="#5396C7" d="M5.5,0C2.467,0,0,2.467,0,5.5C0,8.532,2.467,11,5.5,11C8.532,11,11,8.532,11,5.5C11,2.467,8.532,0,5.5,0z
		 M5.5,10.5c-2.761,0-5-2.239-5-5s2.239-5,5-5s5,2.239,5,5S8.261,10.5,5.5,10.5z"/>
	<path fill="#5396C7" d="M5.5,0.5c-2.761,0-5,2.239-5,5s2.239,5,5,5s5-2.239,5-5S8.261,0.5,5.5,0.5z M5.5,10C3.019,10,1,7.981,1,5.5
		S3.019,1,5.5,1S10,3.019,10,5.5S7.981,10,5.5,10z"/>
	<path fill="#5396C7" d="M7.667,3.028c-0.2-0.069-0.423-0.006-0.557,0.159L5.5,5.2L3.89,3.188c-0.134-0.166-0.356-0.23-0.556-0.159
		C3.134,3.099,3,3.288,3,3.5v3.993c0,0.276,0.224,0.5,0.5,0.5S4,7.77,4,7.493V4.925l1.11,1.387C5.205,6.431,5.348,6.5,5.5,6.5
		s0.295-0.069,0.39-0.188l1.111-1.388v2.568c0,0.276,0.224,0.5,0.5,0.5s0.5-0.224,0.5-0.5V3.5C8.001,3.288,7.867,3.099,7.667,3.028z
		"/>
</g>
</svg>

<?xml version="1.0" encoding="utf-8"?>
<!-- Generator: Adobe Illustrator 17.1.0, SVG Export Plug-In . SVG Version: 6.00 Build 0)  -->
<!DOCTYPE svg PUBLIC "-//W3C//DTD SVG 1.1//EN" "http://www.w3.org/Graphics/SVG/1.1/DTD/svg11.dtd">
<svg version="1.1"
	 id="Layer_1" inkscape:output_extension="org.inkscape.output.svg.inkscape" sodipodi:version="0.32" xmlns:svg="http://www.w3.org/2000/svg" xmlns:cc="http://creativecommons.org/ns#" xmlns:dc="http://purl.org/dc/elements/1.1/" xmlns:rdf="http://www.w3.org/1999/02/22-rdf-syntax-ns#" sodipodi:docname="metro-11.svg" inkscape:version="0.91+devel+osxmenu r12911" xmlns:inkscape="http://www.inkscape.org/namespaces/inkscape" xmlns:sodipodi="http://sodipodi.sourceforge.net/DTD/sodipodi-0.dtd"
	 xmlns="http://www.w3.org/2000/svg" xmlns:xlink="http://www.w3.org/1999/xlink" x="0px" y="0px" width="13px" height="13px"
	 viewBox="0 0 13 13" enable-background="new 0 0 13 13" xml:space="preserve">
<defs>
	
	
		<inkscape:perspective  inkscape:persp3d-origin="200 : 133.33333 : 1" sodipodi:type="inkscape:persp3d" inkscape:vp_x="0 : 200 : 1" inkscape:vp_y="0 : 1000 : 0" inkscape:vp_z="400 : 200 : 1" id="perspective10">
		</inkscape:perspective>
</defs>
<sodipodi:namedview  inkscape:snap-bbox-edge-midpoints="true" inkscape:snap-intersection-paths="true" inkscape:window-x="2" inkscape:snap-smooth-nodes="true" inkscape:bbox-nodes="true" inkscape:snap-bbox="true" inkscape:object-nodes="true" inkscape:object-paths="true" inkscape:pageopacity="0.0" inkscape:pageshadow="2" inkscape:current-layer="Layer_1" inkscape:window-y="0" inkscape:bbox-paths="true" inkscape:window-maximized="0" guidetolerance="10.0" gridtolerance="10.0" showgrid="false" pagecolor="#ffffff" objecttolerance="10.0" bordercolor="#666666" id="base" inkscape:cy="7.3442461" inkscape:zoom="32" borderopacity="1.0" inkscape:cx="4.920597">
	
		<inkscape:grid  type="xygrid" color="#ff0000" snapvisiblegridlinesonly="true" spacingy="0.5" spacingx="0.5" opacity="0.1254902" empspacing="2" id="grid3142" enabled="true" visible="true">
		</inkscape:grid>
</sodipodi:namedview>
<g id="g3807_1_" transform="translate(-0.5,-0.5)">
</g>
<defs>
	
	
		<inkscape:perspective  inkscape:persp3d-origin="200 : 133.33333 : 1" sodipodi:type="inkscape:persp3d" inkscape:vp_x="0 : 200 : 1" inkscape:vp_y="0 : 1000 : 0" inkscape:vp_z="400 : 200 : 1" id="perspective10">
		</inkscape:perspective>
</defs>
<sodipodi:namedview  inkscape:snap-bbox-edge-midpoints="true" inkscape:snap-intersection-paths="true" inkscape:window-x="2" inkscape:snap-smooth-nodes="true" inkscape:bbox-nodes="true" inkscape:snap-bbox="true" inkscape:object-nodes="true" inkscape:object-paths="true" inkscape:pageopacity="0.0" inkscape:pageshadow="2" inkscape:current-layer="Layer_1" inkscape:window-y="0" inkscape:bbox-paths="true" inkscape:window-maximized="0" guidetolerance="10.0" gridtolerance="10.0" showgrid="false" pagecolor="#ffffff" objecttolerance="10.0" bordercolor="#666666" id="base" inkscape:cy="7.3442461" inkscape:zoom="32" borderopacity="1.0" inkscape:cx="4.920597">
	
		<inkscape:grid  type="xygrid" color="#ff0000" snapvisiblegridlinesonly="true" spacingy="0.5" spacingx="0.5" opacity="0.1254902" empspacing="2" id="grid3142" enabled="true" visible="true">
		</inkscape:grid>
</sodipodi:namedview>
<g id="g3807" transform="translate(-0.5,-0.5)">
</g>
<g>
	<path fill="#FFFFFF" d="M5.5-1C1.9-1-1,1.9-1,5.5S1.9,12,5.5,12S12,9.1,12,5.5S9.1-1,5.5-1z M5.5,11C2.5,11,0,8.5,0,5.5
		C0,2.5,2.5,0,5.5,0c3,0,5.5,2.5,5.5,5.5C11,8.5,8.5,11,5.5,11z"/>
	<path fill="#FFFFFF" d="M5.5,1C3,1,1,3,1,5.5S3,10,5.5,10S10,8,10,5.5S8,1,5.5,1z M8,7.5C8,7.8,7.8,8,7.5,8S7,7.8,7,7.5V4.9
		L5.9,6.3C5.8,6.4,5.7,6.5,5.5,6.5S5.2,6.4,5.1,6.3L4,4.9v2.6C4,7.8,3.8,8,3.5,8S3,7.8,3,7.5v-4C3,3.3,3.1,3.1,3.3,3s0.4,0,0.6,0.2
		l1.6,2l1.6-2C7.2,3,7.5,3,7.7,3C7.9,3.1,8,3.3,8,3.5V7.5z"/>
	<path fill="#5396C7" d="M5.5,0C2.5,0,0,2.5,0,5.5c0,3,2.5,5.5,5.5,5.5c3,0,5.5-2.5,5.5-5.5C11,2.5,8.5,0,5.5,0z M5.5,10.5
		c-2.8,0-5-2.2-5-5s2.2-5,5-5s5,2.2,5,5S8.3,10.5,5.5,10.5z"/>
	<path fill="#5396C7" d="M5.5,0.5c-2.8,0-5,2.2-5,5s2.2,5,5,5s5-2.2,5-5S8.3,0.5,5.5,0.5z M5.5,10C3,10,1,8,1,5.5S3,1,5.5,1
		S10,3,10,5.5S8,10,5.5,10z"/>
	<path fill="#5396C7" d="M7.7,3C7.5,3,7.2,3,7.1,3.2l-1.6,2l-1.6-2C3.8,3,3.5,3,3.3,3C3.1,3.1,3,3.3,3,3.5v4C3,7.8,3.2,8,3.5,8
		S4,7.8,4,7.5V4.9l1.1,1.4c0.1,0.1,0.2,0.2,0.4,0.2s0.3-0.1,0.4-0.2L7,4.9v2.6C7,7.8,7.2,8,7.5,8S8,7.8,8,7.5v-4
		C8,3.3,7.9,3.1,7.7,3z"/>
</g>
</svg>
